web-ui/public/img/networks/qatom.svg

<svg xmlns="http://www.w3.org/2000/svg" xmlns:xlink="http://www.w3.org/1999/xlink" width="500" zoomAndPan="magnify" viewBox="0 0 375 374.999991" height="500" preserveAspectRatio="xMidYMid meet" version="1.0"><defs><clipPath id="e1c5e79c1a"><path d="M 17.554688 17.550781 L 357.300781 17.550781 L 357.300781 357.265625 L 17.554688 357.265625 Z M 17.554688 17.550781 " clip-rule="nonzero"/></clipPath></defs><g clip-path="url(#e1c5e79c1a)"><path fill="#ff914d" d="M 187.429688 357.265625 C 281.246094 357.265625 357.300781 281.21875 357.300781 187.410156 C 357.300781 93.597656 281.246094 17.550781 187.429688 17.550781 C 93.609375 17.550781 17.554688 93.597656 17.554688 187.410156 C 17.554688 281.21875 93.609375 357.265625 187.429688 357.265625 Z M 187.429688 357.265625 " fill-opacity="1" fill-rule="nonzero"/></g><path fill="#ff914d" d="M 187.425781 285.96875 C 241.863281 285.96875 285.992188 241.839844 285.992188 187.410156 C 285.992188 132.976562 241.863281 88.851562 187.425781 88.851562 C 132.988281 88.851562 88.855469 132.976562 88.855469 187.410156 C 88.855469 241.839844 132.988281 285.96875 187.425781 285.96875 Z M 187.425781 285.96875 " fill-opacity="1" fill-rule="nonzero"/><path fill="#ffffff" d="M 187.777344 39.21875 C 169.441406 39.21875 154.570312 105.722656 154.570312 187.757812 C 154.570312 269.792969 169.441406 336.296875 187.777344 336.296875 C 206.113281 336.296875 220.984375 269.792969 220.984375 187.757812 C 220.984375 105.722656 206.113281 39.21875 187.777344 39.21875 Z M 190.070312 327.914062 C 187.972656 330.710938 185.875 328.613281 185.875 328.613281 C 177.433594 318.828125 173.210938 300.652344 173.210938 300.652344 C 158.4375 253.121094 161.953125 151.066406 161.953125 151.066406 C 168.894531 70.046875 181.523438 50.90625 185.820312 46.65625 C 186.257812 46.222656 186.835938 45.957031 187.453125 45.910156 C 188.066406 45.859375 188.679688 46.027344 189.183594 46.386719 C 195.417969 50.804688 200.648438 69.277344 200.648438 69.277344 C 216.089844 126.597656 214.691406 180.417969 214.691406 180.417969 C 216.089844 227.253906 206.953125 279.675781 206.953125 279.675781 C 199.917969 319.519531 190.070312 327.914062 190.070312 327.914062 Z M 190.070312 327.914062 " fill-opacity="1" fill-rule="nonzero"/><path fill="#ffffff" d="M 316.625 113.839844 C 307.496094 97.929688 242.414062 118.128906 171.214844 158.953125 C 100.015625 199.777344 49.792969 245.769531 58.917969 261.671875 C 68.039062 277.574219 133.128906 257.378906 204.328125 216.558594 C 275.527344 175.734375 325.75 129.742188 316.625 113.839844 Z M 67.339844 259.488281 C 63.84375 259.046875 64.632812 256.175781 64.632812 256.175781 C 68.921875 243.984375 82.566406 231.277344 82.566406 231.277344 C 116.464844 194.8125 206.75 147.078125 206.75 147.078125 C 280.480469 112.777344 303.378906 114.222656 309.191406 115.824219 C 309.785156 115.988281 310.304688 116.359375 310.652344 116.875 C 311 117.386719 311.15625 118.003906 311.09375 118.617188 C 310.394531 126.230469 296.9375 139.953125 296.9375 139.953125 C 254.925781 181.886719 207.539062 207.460938 207.539062 207.460938 C 167.609375 231.988281 117.582031 250.144531 117.582031 250.144531 C 79.519531 263.859375 67.339844 259.488281 67.339844 259.488281 Z M 67.339844 259.488281 " fill-opacity="1" fill-rule="nonzero"/><path fill="#ffffff" d="M 316.308594 262.203125 C 325.511719 246.335938 275.414062 200.132812 204.464844 159 C 133.519531 117.871094 68.441406 97.421875 59.25 113.316406 C 50.058594 129.210938 100.144531 175.386719 171.136719 216.515625 C 242.125 257.648438 307.117188 278.097656 316.308594 262.203125 Z M 65.347656 119.445312 C 63.988281 116.222656 66.855469 115.449219 66.855469 115.449219 C 79.558594 113.050781 97.398438 118.515625 97.398438 118.515625 C 145.933594 129.566406 232.480469 183.773438 232.480469 183.773438 C 299.117188 230.398438 309.335938 250.933594 310.867188 256.765625 C 311.023438 257.363281 310.960938 257.996094 310.695312 258.554688 C 310.429688 259.113281 309.976562 259.558594 309.414062 259.8125 C 302.464844 262.992188 283.855469 258.253906 283.855469 258.253906 C 226.496094 242.875 180.625 214.699219 180.625 214.699219 C 139.40625 192.472656 98.652344 158.269531 98.652344 158.269531 C 67.683594 132.195312 65.355469 119.480469 65.355469 119.480469 Z M 65.347656 119.445312 " fill-opacity="1" fill-rule="nonzero"/><path fill="#ffffff" d="M 187.425781 204.886719 C 197.078125 204.886719 204.902344 197.0625 204.902344 187.410156 C 204.902344 177.757812 197.078125 169.933594 187.425781 169.933594 C 177.773438 169.933594 169.949219 177.757812 169.949219 187.410156 C 169.949219 197.0625 177.773438 204.886719 187.425781 204.886719 Z M 187.425781 204.886719 " fill-opacity="1" fill-rule="nonzero"/><path fill="#ffffff" d="M 259.082031 130.789062 C 264.679688 130.789062 269.21875 126.09375 269.21875 120.304688 C 269.21875 114.511719 264.679688 109.820312 259.082031 109.820312 C 253.484375 109.820312 248.945312 114.511719 248.945312 120.304688 C 248.945312 126.09375 253.484375 130.789062 259.082031 130.789062 Z M 259.082031 130.789062 " fill-opacity="1" fill-rule="nonzero"/><path fill="#ffffff" d="M 92.707031 166.4375 C 98.304688 166.4375 102.84375 161.742188 102.84375 155.953125 C 102.84375 150.164062 98.304688 145.46875 92.707031 145.46875 C 87.109375 145.46875 82.570312 150.164062 82.570312 155.953125 C 82.570312 161.742188 87.109375 166.4375 92.707031 166.4375 Z M 92.707031 166.4375 " fill-opacity="1" fill-rule="nonzero"/><path fill="#ffffff" d="M 166.808594 295.054688 C 172.40625 295.054688 176.941406 290.359375 176.941406 284.570312 C 176.941406 278.78125 172.40625 274.085938 166.808594 274.085938 C 161.207031 274.085938 156.671875 278.78125 156.671875 284.570312 C 156.671875 290.359375 161.207031 295.054688 166.808594 295.054688 Z M 166.808594 295.054688 " fill-opacity="1" fill-rule="nonzero"/></svg>

<svg xmlns="http://www.w3.org/2000/svg" width="500" height="500" version="1.0" viewBox="0 0 375 375"><defs><clipPath id="a"><path d="M17.555 17.55H357.3v339.716H17.555Zm0 0"/></clipPath></defs><g clip-path="url(#a)"><path fill="#ff914d" d="M187.43 357.266c93.816 0 169.87-76.047 169.87-169.856 0-93.812-76.054-169.86-169.87-169.86-93.82 0-169.875 76.048-169.875 169.86 0 93.809 76.054 169.856 169.875 169.856Zm0 0"/></g><path fill="#ff914d" d="M187.426 285.969c54.437 0 98.566-44.13 98.566-98.559 0-54.433-44.129-98.558-98.566-98.558-54.438 0-98.57 44.125-98.57 98.558 0 54.43 44.132 98.559 98.57 98.559Zm0 0"/><path fill="#fff" d="M187.777 39.219c-18.336 0-33.207 66.504-33.207 148.539 0 82.035 14.871 148.539 33.207 148.539s33.207-66.504 33.207-148.54c0-82.034-14.87-148.538-33.207-148.538Zm2.293 288.695c-2.097 2.797-4.195.7-4.195.7-8.441-9.786-12.664-27.962-12.664-27.962-14.774-47.53-11.258-149.586-11.258-149.586 6.942-81.02 19.57-100.16 23.867-104.41a2.6 2.6 0 0 1 1.633-.746 2.61 2.61 0 0 1 1.73.477c6.235 4.418 11.465 22.89 11.465 22.89 15.442 57.32 14.043 111.141 14.043 111.141 1.399 46.836-7.738 99.258-7.738 99.258-7.035 39.844-16.883 48.238-16.883 48.238Zm0 0"/><path fill="#fff" d="M316.625 113.84c-9.129-15.91-74.21 4.289-145.41 45.113S49.793 245.77 58.918 261.672c9.121 15.902 74.21-4.293 145.41-45.113 71.2-40.825 121.422-86.817 112.297-102.72ZM67.34 259.488c-3.496-.441-2.707-3.312-2.707-3.312 4.289-12.192 17.933-24.899 17.933-24.899 33.899-36.464 124.184-84.199 124.184-84.199 73.73-34.3 96.629-32.855 102.441-31.254a2.627 2.627 0 0 1 1.902 2.793c-.698 7.613-14.155 21.336-14.155 21.336-42.012 41.934-89.399 67.508-89.399 67.508-39.93 24.527-89.957 42.684-89.957 42.684-38.062 13.714-50.242 9.343-50.242 9.343Zm0 0"/><path fill="#fff" d="M316.309 262.203c9.203-15.867-40.895-62.07-111.844-103.203C133.52 117.871 68.44 97.422 59.25 113.316c-9.191 15.895 40.895 62.07 111.887 103.2 70.988 41.132 135.98 61.582 145.172 45.687ZM65.348 119.445c-1.36-3.222 1.507-3.996 1.507-3.996 12.704-2.398 30.543 3.067 30.543 3.067 48.536 11.05 135.082 65.257 135.082 65.257 66.637 46.625 76.856 67.16 78.387 72.993a2.62 2.62 0 0 1-1.453 3.046c-6.95 3.18-25.559-1.558-25.559-1.558-57.359-15.379-103.23-43.555-103.23-43.555-41.219-22.226-81.973-56.43-81.973-56.43-30.968-26.074-33.297-38.789-33.297-38.789Zm0 0"/><path fill="#fff" d="M187.426 204.887c9.652 0 17.476-7.825 17.476-17.477 0-9.652-7.824-17.476-17.476-17.476-9.653 0-17.477 7.824-17.477 17.476 0 9.653 7.824 17.477 17.477 17.477ZM259.082 130.79c5.598 0 10.137-4.696 10.137-10.485 0-5.793-4.54-10.485-10.137-10.485-5.598 0-10.137 4.692-10.137 10.485 0 5.789 4.54 10.484 10.137 10.484ZM92.707 166.438c5.598 0 10.137-4.696 10.137-10.485s-4.54-10.484-10.137-10.484c-5.598 0-10.137 4.695-10.137 10.484 0 5.79 4.54 10.484 10.137 10.484ZM166.809 295.055c5.597 0 10.132-4.696 10.132-10.485s-4.535-10.484-10.132-10.484c-5.602 0-10.137 4.695-10.137 10.484 0 5.79 4.535 10.485 10.137 10.485Zm0 0"/></svg>
